img/icon/twitch.svg

<svg viewBox="0 0 448 512" xmlns="http://www.w3.org/2000/svg"><path d="m40.1 32-30.1 76.9v314.3h107v56.8h60.2l56.8-56.8h87l117-117v-274.2zm357.8 254.1-66.9 66.9h-107l-56.8 56.8v-56.8h-90.3v-280.9h321zm-66.9-137.1v116.9h-40.1v-116.9zm-107 0v116.9h-40.1v-116.9z"/></svg>

<svg aria-hidden="true" data-prefix="fab" data-icon="twitch" class="svg-inline--fa fa-twitch fa-w-14" role="img" xmlns="http://www.w3.org/2000/svg" viewBox="0 0 448 512"><path fill="currentColor" d="M40.1 32L10 108.9v314.3h107V480h60.2l56.8-56.8h87l117-117V32H40.1zm357.8 254.1L331 353H224l-56.8 56.8V353H76.9V72.1h321v214zM331 149v116.9h-40.1V149H331zm-107 0v116.9h-40.1V149H224z"></path></svg>
